Newaita-dark/actions/22/artifact.svg

<svg height="22" viewBox="0 0 22 22" width="22" xmlns="http://www.w3.org/2000/svg"><g fill="#e0e0e0"><path d="m5.457031 1.992188c-1.007812 0-1.820312.808593-1.820312 1.816406v5.003906h1.820312v-4.09375c0-.503906.40625-.910156.910157-.910156h3.636718v-.003906h3.265625l3.105469 3.109374v1.898438h1.8125v-2.273438c0-.238281-.09375-.46875-.265625-.640624l-3.636719-3.636719c-.171875-.171875-.402344-.265625-.640625-.265625h-3.640625v-.003906zm-1.820312 11.367187v5.003906c0 1.007813.8125 1.820313 1.820312 1.820313h10.914063c1.007812 0 1.820312-.8125 1.820312-1.820313v-5.003906h-1.820312v4.09375c0 .503906-.402344.910156-.90625.910156h-9.097656c-.503907 0-.910157-.40625-.910157-.910156v-4.09375zm0 0"/><path d="m2.957031 10.632812h3.183594c.125 0 .226563.101563.226563.226563v.453125c0 .128906-.101563.230469-.226563.230469h-3.183594c-.125 0-.226562-.101563-.226562-.230469v-.453125c0-.125.101562-.226563.226562-.226563zm0 0"/><path d="m9.324219 10.632812h3.183593c.125 0 .226563.101563.226563.226563v.453125c0 .128906-.101563.230469-.226563.230469h-3.183593c-.125 0-.226563-.101563-.226563-.230469v-.453125c0-.125.101563-.226563.226563-.226563zm0 0"/><path d="m15.691406 10.632812h3.183594c.125 0 .226562.101563.226562.226563v.453125c0 .128906-.101562.230469-.226562.230469h-3.183594c-.125 0-.226562-.101563-.226562-.230469v-.453125c0-.125.101562-.226563.226562-.226563zm0 0"/></g></svg>

<svg xmlns="http://www.w3.org/2000/svg" xmlns:xlink="http://www.w3.org/1999/xlink" width="22px" height="22px" viewBox="0 0 22 22" version="1.1">
<g id="surface1">
     <defs>
  <style id="current-color-scheme" type="text/css">
   .ColorScheme-Text { color:#eeeeee; } .ColorScheme-Highlight { color:#424242; }
  </style>
 </defs>
<path style="fill:currentColor" class="ColorScheme-Text" d="M 5.457031 1.992188 C 4.449219 1.992188 3.636719 2.800781 3.636719 3.808594 L 3.636719 8.8125 L 5.457031 8.8125 L 5.457031 4.71875 C 5.457031 4.214844 5.863281 3.808594 6.367188 3.808594 L 10.003906 3.808594 L 10.003906 3.804688 L 13.269531 3.804688 L 16.375 6.914062 L 16.375 8.8125 L 18.1875 8.8125 L 18.1875 6.539062 C 18.1875 6.300781 18.09375 6.070312 17.921875 5.898438 L 14.285156 2.261719 C 14.113281 2.089844 13.882812 1.996094 13.644531 1.996094 L 10.003906 1.996094 L 10.003906 1.992188 Z M 3.636719 13.359375 L 3.636719 18.363281 C 3.636719 19.371094 4.449219 20.183594 5.457031 20.183594 L 16.371094 20.183594 C 17.378906 20.183594 18.191406 19.371094 18.191406 18.363281 L 18.191406 13.359375 L 16.371094 13.359375 L 16.371094 17.453125 C 16.371094 17.957031 15.96875 18.363281 15.464844 18.363281 L 6.367188 18.363281 C 5.863281 18.363281 5.457031 17.957031 5.457031 17.453125 L 5.457031 13.359375 Z M 3.636719 13.359375 "/>
     <defs>
  <style id="current-color-scheme" type="text/css">
   .ColorScheme-Text { color:#eeeeee; } .ColorScheme-Highlight { color:#424242; }
  </style>
 </defs>
<path style="fill:currentColor" class="ColorScheme-Text" d="M 2.957031 10.632812 L 6.140625 10.632812 C 6.265625 10.632812 6.367188 10.734375 6.367188 10.859375 L 6.367188 11.3125 C 6.367188 11.441406 6.265625 11.542969 6.140625 11.542969 L 2.957031 11.542969 C 2.832031 11.542969 2.730469 11.441406 2.730469 11.3125 L 2.730469 10.859375 C 2.730469 10.734375 2.832031 10.632812 2.957031 10.632812 Z M 2.957031 10.632812 "/>
     <defs>
  <style id="current-color-scheme" type="text/css">
   .ColorScheme-Text { color:#eeeeee; } .ColorScheme-Highlight { color:#424242; }
  </style>
 </defs>
<path style="fill:currentColor" class="ColorScheme-Text" d="M 9.324219 10.632812 L 12.507812 10.632812 C 12.632812 10.632812 12.734375 10.734375 12.734375 10.859375 L 12.734375 11.3125 C 12.734375 11.441406 12.632812 11.542969 12.507812 11.542969 L 9.324219 11.542969 C 9.199219 11.542969 9.097656 11.441406 9.097656 11.3125 L 9.097656 10.859375 C 9.097656 10.734375 9.199219 10.632812 9.324219 10.632812 Z M 9.324219 10.632812 "/>
     <defs>
  <style id="current-color-scheme" type="text/css">
   .ColorScheme-Text { color:#eeeeee; } .ColorScheme-Highlight { color:#424242; }
  </style>
 </defs>
<path style="fill:currentColor" class="ColorScheme-Text" d="M 15.691406 10.632812 L 18.875 10.632812 C 19 10.632812 19.101562 10.734375 19.101562 10.859375 L 19.101562 11.3125 C 19.101562 11.441406 19 11.542969 18.875 11.542969 L 15.691406 11.542969 C 15.566406 11.542969 15.464844 11.441406 15.464844 11.3125 L 15.464844 10.859375 C 15.464844 10.734375 15.566406 10.632812 15.691406 10.632812 Z M 15.691406 10.632812 "/>
</g>
</svg>
